X:60
T:The King of Fairies  a different set
Z:Jack Campin - http://www.campin.me.uk
S:Blaikie MS (NLS MS.1578) p19, No Blaikie #
M:3/4
L:1/8
V:1 midi program 1 74
V:2 midi program 1 46 bass middle = d transpose -24
Q:1/4=100
K:F
[V:1] F2|FA c2 cf|dB c2 d2|c2 A3  F|EG C2
[V:2] z2|F2 f2 f2|F2 f2 f2|F2 f2 f2|c2 c2
%
[V:1] C2|FA c2 cf|dB c2 d2|cA F2 BA|G2 F2|]
[V:2] z2|F2 f2 A2|B2 A2 B2|A4    B2|c2 f2|]
W:Transcription (c) Jack Campin 2009, no mirroring or republication without permission

